svg/icon/sui.svg

<svg xmlns="http://www.w3.org/2000/svg" width="500" height="500" fill="none" viewBox="0 0 500 500"><rect width="500" height="500" fill="#4DA2FF" rx="250"/><path fill="#F7F7F8" fill-rule="evenodd" d="m320.749 225.119-.005.013c12.3 15.346 19.651 34.783 19.651 55.924 0 21.456-7.571 41.157-20.203 56.607l-1.088 1.33-.288-1.69a80 80 0 0 0-.869-4.353c-6.322-27.638-26.92-51.338-60.822-70.528-22.893-12.922-35.998-28.483-39.438-46.163-2.222-11.432-.57-22.916 2.622-32.751 3.192-9.833 7.94-18.071 11.973-23.031l.002-.003 13.188-16.045c2.313-2.814 6.641-2.814 8.954 0zm20.859-16.031.003-.006-88.395-107.542c-1.687-2.053-4.847-2.053-6.535 0l-88.395 107.543.002.006-.287.355C141.734 229.528 132 255.051 132 282.835 132 347.542 184.806 400 249.949 400c65.142 0 117.948-52.458 117.948-117.165 0-27.784-9.734-53.307-26-73.391zm-162.172 15.684.004-.004 7.906-9.62.239 1.776a77 77 0 0 0 .691 4.241c5.116 26.707 23.391 48.975 53.945 66.222 26.558 15.04 42.021 32.334 46.477 51.302 1.859 7.916 2.19 15.704 1.385 22.513l-.05.422-.383.186c-11.987 5.827-25.462 9.097-39.704 9.097-49.952 0-90.449-40.226-90.449-89.851 0-21.305 7.465-40.882 19.939-56.284" clip-rule="evenodd"/></svg>

<svg
	width="500"
	height="500"
	viewBox="0 0 500 500"
	fill="none"
	xmlns="http://www.w3.org/2000/svg"
>
	<rect width="500" height="500" rx="250" fill="#4DA2FF" />
	<path
		fill-rule="evenodd"
		clip-rule="evenodd"
		d="M320.749 225.119L320.744 225.132C333.044 240.478 340.395 259.915 340.395 281.056C340.395 302.512 332.824 322.213 320.192 337.663L319.104 338.993L318.816 337.303C318.57 335.865 318.282 334.413 317.947 332.95C311.625 305.312 291.027 281.612 257.125 262.422C234.232 249.5 221.127 233.939 217.687 216.259C215.465 204.827 217.117 193.343 220.309 183.508C223.501 173.675 228.249 165.437 232.282 160.477L232.284 160.474L245.472 144.429C247.785 141.615 252.113 141.615 254.426 144.429L320.749 225.119ZM341.608 209.088L341.611 209.082L253.216 101.54C251.529 99.4867 248.369 99.4867 246.681 101.54L158.286 209.083L158.288 209.089L158.001 209.444C141.734 229.528 132 255.051 132 282.835C132 347.542 184.806 400 249.949 400C315.091 400 367.897 347.542 367.897 282.835C367.897 255.051 358.163 229.528 341.897 209.444L341.608 209.088ZM179.436 224.772L179.44 224.768L187.346 215.148L187.585 216.924C187.774 218.331 188.004 219.745 188.276 221.165C193.392 247.872 211.667 270.14 242.221 287.387C268.779 302.427 284.242 319.721 288.698 338.689C290.557 346.605 290.888 354.393 290.083 361.202L290.033 361.624L289.65 361.81C277.663 367.637 264.188 370.907 249.946 370.907C199.994 370.907 159.497 330.681 159.497 281.056C159.497 259.751 166.962 240.174 179.436 224.772Z"
		fill="#F7F7F8"
	/>
</svg>
